!!!OTL: BRUEDER LASSET UNS EINS SINGEN
!!!ARE: Europa, Mitteleuropa, Deutschland
!!!SCT: B0319
!!!YEM: Copyright 1995, estate of Helmut Schaffrath.
**kern
*ICvox
*Ivox
*M4/4
*k[b-]
*F:
{4cc
4cc
=1
8dd
8cc
8bn
8cc
4a
4f
=2
4g
4cc}
{4c
8d
8e
=3
8.f
16g
8.a
16b-
4cc
4a
=4
2g}
{4cc
4cc
=5
8dd
8cc
8bn
8cc
4a
4f
=6
4g
4ee}
{8dd
8cc
8bn
8a
=7
4g
4g
4g
8a
8bn
=8
4cc
4ee}
{8dd
8cc
8bn
8a
=9
4g
4g
4g
8a
8bn
=10
2cc}
{4c
4c
=11
4e
4c
4e
4g
=12
4b-
4b-}
{4c
4c
=13
4f
4c
4f
4a
=14
4cc
4cc}
{4f
4f
=15
4dd
4dd
8.dd
16ff
8.ee
16dd
=16
2cc}
{4b-
4b-
=17
4a
4a
4g
4g
=18
4f
4r
4a
4r
=19
2cc}
{4b-
4b-
=20
4a
4dd
4cc
4e
=21
2f}
{4f
4f
=22
4dd
4dd
8.dd
16ff
8.ee
16dd
=23
2cc}
{4b-
4b-
=24
4a
4a
4g
4g
=25
4f
4r
4a
4r
=26
2cc}
{4b-
4b-
=27
4a
4dd
4cc
4e
=28
2f}
==
!!!AGN: Geselligkeits -, Trink - Lied, Freude
!!!ONB: ESAC (Essen Associative Code) Database: BOEHME
!!!AMT: simple quadruple
!!!AIN: vox
!!!EED: Helmut Schaffrath
!!!EEV: 1.0
*-
